flaticon/web-design/design-tool.svg

<svg xmlns="http://www.w3.org/2000/svg" width="32" height="32" viewBox="0 0 24 24">
    <path d="M 23.6875 23.351562 L 0.847656 0.515625 C 0.742188 0.40625 0.578125 0.375 0.4375 0.433594 C 0.292969 0.492188 0.203125 0.628906 0.203125 0.78125 L 0.203125 23.621094 C 0.203125 23.832031 0.371094 24 0.582031 24 L 23.417969 24 C 23.574219 24 23.710938 23.90625 23.769531 23.765625 C 23.828125 23.625 23.796875 23.460938 23.6875 23.351562 Z M 19.148438 23.242188 L 19.148438 22.003906 C 19.148438 21.792969 18.980469 21.625 18.769531 21.625 C 18.5625 21.625 18.390625 21.792969 18.390625 22.003906 L 18.390625 23.242188 L 16.117188 23.242188 L 16.117188 22.003906 C 16.117188 21.792969 15.949219 21.625 15.738281 21.625 C 15.53125 21.625 15.359375 21.792969 15.359375 22.003906 L 15.359375 23.242188 L 13.085938 23.242188 L 13.085938 22.003906 C 13.085938 21.792969 12.917969 21.625 12.707031 21.625 C 12.496094 21.625 12.328125 21.792969 12.328125 22.003906 L 12.328125 23.242188 L 10.054688 23.242188 L 10.054688 22.003906 C 10.054688 21.792969 9.886719 21.625 9.675781 21.625 C 9.464844 21.625 9.296875 21.792969 9.296875 22.003906 L 9.296875 23.242188 L 7.023438 23.242188 L 7.023438 22.003906 C 7.023438 21.792969 6.851562 21.625 6.644531 21.625 C 6.433594 21.625 6.265625 21.792969 6.265625 22.003906 L 6.265625 23.242188 L 3.992188 23.242188 L 3.992188 22.003906 C 3.992188 21.792969 3.820312 21.625 3.613281 21.625 C 3.402344 21.625 3.234375 21.792969 3.234375 22.003906 L 3.234375 23.242188 L 0.960938 23.242188 L 0.960938 1.699219 L 22.503906 23.242188 Z M 19.148438 23.242188"/>
    <path d="M16.410156 20.320312L3.878906 7.832031C3.769531 7.726562 3.609375 7.691406 3.46875 7.75 3.324219 7.808594 3.234375 7.949219 3.234375 8.101562L3.234375 20.589844C3.234375 20.796875 3.402344 20.96875 3.613281 20.96875L16.144531 20.96875C16.296875 20.96875 16.433594 20.875 16.492188 20.734375 16.550781 20.59375 16.519531 20.429688 16.410156 20.320312zM3.992188 20.210938L3.992188 9.015625 15.226562 20.210938zM8.527344 10.214844L2.871094 4.558594C2.722656 4.410156 2.480469 4.410156 2.332031 4.558594 2.1875 4.703125 2.1875 4.945312 2.332031 5.09375L7.992188 10.75C8.066406 10.824219 8.164062 10.863281 8.261719 10.863281 8.359375 10.863281 8.453125 10.824219 8.527344 10.75 8.675781 10.605469 8.675781 10.363281 8.527344 10.214844zM10.550781 12.4375L9.539062 11.429688C9.390625 11.28125 9.152344 11.28125 9.003906 11.429688 8.855469 11.578125 8.855469 11.816406 9.003906 11.964844L10.015625 12.976562C10.089844 13.050781 10.183594 13.085938 10.28125 13.085938 10.378906 13.085938 10.476562 13.050781 10.550781 12.976562 10.699219 12.828125 10.699219 12.585938 10.550781 12.4375zM23.6875 12.917969L20.828125 10.058594 12.082031 1.316406C12.082031 1.3125 12.082031 1.3125 12.082031 1.3125 12.078125 1.3125 12.078125 1.308594 12.078125 1.308594 12.070312 1.300781 12.0625 1.292969 12.054688 1.289062 12.050781 1.285156 12.046875 1.28125 12.042969 1.28125 12.039062 1.273438 12.03125 1.269531 12.023438 1.265625 12.019531 1.261719 12.015625 1.261719 12.011719 1.257812 12.003906 1.253906 12 1.25 11.992188 1.246094 11.988281 1.242188 11.980469 1.242188 11.976562 1.238281 11.96875 1.234375 11.964844 1.234375 11.960938 1.230469 11.953125 1.226562 11.945312 1.226562 11.9375 1.222656 11.933594 1.222656 11.929688 1.21875 11.925781 1.21875 11.914062 1.214844 11.90625 1.214844 11.894531 1.210938 11.894531 1.210938 11.890625 1.210938 11.886719 1.210938L11.886719 1.207031 6.890625.210938C6.878906.207031 6.863281.203125 6.847656.203125 6.847656.203125 6.84375.203125 6.84375.203125 6.839844.203125 6.835938.203125 6.832031.203125 6.824219.203125 6.820312.203125 6.8125.203125 6.808594.203125 6.804688.203125 6.796875.203125 6.792969.203125 6.789062.203125 6.785156.203125 6.785156.203125 6.78125.203125 6.78125.203125 6.78125.203125 6.777344.203125 6.777344.203125 6.769531.203125 6.761719.207031 6.753906.207031 6.75.207031 6.746094.207031 6.746094.207031 6.714844.214844 6.6875.222656 6.660156.234375 6.660156.234375 6.65625.234375 6.652344.234375 6.644531.238281 6.640625.242188 6.632812.246094 6.628906.25 6.625.25 6.621094.253906 6.621094.253906 6.617188.257812 6.613281.257812 6.609375.261719 6.605469.261719 6.601562.265625 6.597656.269531 6.589844.273438 6.585938.277344 6.582031.28125 6.578125.28125 6.578125.28125 6.574219.285156 6.574219.285156 6.570312.289062 6.566406.289062 6.5625.292969 6.5625.296875 6.554688.300781 6.550781.308594 6.542969.3125 6.542969.316406 6.539062.316406 6.535156.320312 6.53125.328125 6.523438.332031 6.519531.339844 6.515625.339844 6.515625.34375 6.515625.34375 6.511719.347656 6.511719.351562 6.507812.351562 6.503906.359375 6.5.363281 6.496094.371094 6.492188.375 6.492188.378906 6.488281.382812 6.488281.382812 6.484375.386719 6.484375.390625 6.480469.394531 6.480469.398438 6.476562.402344 6.476562.402344 6.476562.402344 6.476562.40625 6.472656.410156 6.46875.417969 6.46875.421875 6.46875.425781 6.464844.425781 6.464844.429688 6.464844.429688 6.464844.433594 6.460938.433594 6.457031.445312 6.453125.457031 6.449219.46875 6.449219.472656 6.449219.472656 6.449219.472656 6.445312.484375 6.441406.5 6.4375.511719 6.4375.515625 6.4375.519531 6.4375.523438 6.4375.527344 6.433594.535156 6.433594.542969 6.433594.546875 6.433594.550781 6.433594.554688 6.433594.558594 6.433594.5625 6.433594.566406 6.433594.570312 6.433594.574219 6.433594.582031 6.433594.585938 6.433594.59375 6.433594.601562 6.433594.605469 6.433594.609375 6.433594.609375 6.433594.613281 6.433594.613281 6.433594.617188 6.4375.632812 6.4375.644531 6.441406.65625L7.441406 5.652344C7.441406 5.65625 7.441406 5.65625 7.441406 5.65625 7.441406 5.664062 7.445312 5.671875 7.445312 5.679688 7.449219 5.6875 7.449219 5.695312 7.453125 5.703125 7.457031 5.707031 7.457031 5.714844 7.460938 5.722656 7.460938 5.726562 7.464844 5.730469 7.464844 5.734375 7.46875 5.742188 7.472656 5.75 7.476562 5.753906 7.476562 5.757812 7.480469 5.761719 7.480469 5.765625 7.484375 5.773438 7.488281 5.78125 7.492188 5.785156 7.496094 5.789062 7.496094 5.792969 7.5 5.796875 7.503906 5.804688 7.507812 5.808594 7.515625 5.816406 7.515625 5.820312 7.519531 5.824219 7.523438 5.824219 7.527344 5.832031 7.535156 5.839844 7.539062 5.84375 7.542969 5.847656 7.542969 5.847656 7.542969 5.851562L16.292969 14.597656 19.148438 17.457031C19.222656 17.53125 19.320312 17.566406 19.417969 17.566406 19.515625 17.566406 19.613281 17.53125 19.6875 17.457031L23.6875 13.453125C23.757812 13.382812 23.796875 13.285156 23.796875 13.1875 23.796875 13.085938 23.757812 12.988281 23.6875 12.917969zM11.8125 2.117188L20.023438 10.328125 19.273438 11.078125 11.0625 2.867188zM18.738281 11.613281L17.84375 12.507812 9.632812 4.296875 10.082031 3.851562C10.082031 3.851562 10.082031 3.851562 10.082031 3.847656L10.527344 3.402344zM7.472656 1.957031L7.296875 1.0625 7.542969 1.113281 8.1875 1.242188zM7.652344 2.847656L9.082031 1.421875 11.046875 1.8125 9.546875 3.3125C9.546875 3.3125 9.542969 3.3125 9.542969 3.3125L8.832031 4.027344 8.046875 4.8125zM8.347656 5.582031L9.097656 4.832031 17.308594 13.042969 16.558594 13.792969zM19.417969 16.652344L17.09375 14.328125 18.113281 13.3125 20.5625 10.863281 22.882812 13.1875zM19.417969 16.652344"/>
    <path d="M21.664062 13.046875L20.65625 12.035156C20.507812 11.886719 20.269531 11.886719 20.121094 12.035156 19.972656 12.183594 19.972656 12.421875 20.121094 12.570312L21.128906 13.582031C21.203125 13.65625 21.300781 13.691406 21.398438 13.691406 21.496094 13.691406 21.59375 13.65625 21.664062 13.582031 21.8125 13.433594 21.8125 13.195312 21.664062 13.046875zM23.6875 4.695312L19.398438.40625C18.859375-.136719 17.976562-.136719 17.433594.40625L16.148438 1.691406C15.605469 2.234375 15.605469 3.117188 16.148438 3.65625L20.4375 7.945312C20.507812 8.015625 20.601562 8.054688 20.703125 8.054688 20.804688 8.054688 20.902344 8.015625 20.972656 7.945312L23.6875 5.230469C23.835938 5.082031 23.835938 4.839844 23.6875 4.695312zM16.683594 3.121094C16.4375 2.875 16.4375 2.476562 16.683594 2.230469L17.96875.941406C18.21875.695312 18.617188.695312 18.863281.941406L20.023438 2.101562 17.84375 4.28125zM20.703125 7.140625L18.382812 4.820312 20.5625 2.640625 22.882812 4.960938zM20.703125 7.140625"/>
    <path d="M 21.972656 4.695312 L 20.828125 3.550781 C 20.679688 3.402344 20.441406 3.402344 20.292969 3.550781 C 20.144531 3.699219 20.144531 3.9375 20.292969 4.085938 L 21.4375 5.230469 C 21.511719 5.304688 21.605469 5.339844 21.703125 5.339844 C 21.800781 5.339844 21.898438 5.304688 21.972656 5.230469 C 22.121094 5.082031 22.121094 4.839844 21.972656 4.695312 Z M 21.972656 4.695312"/>
</svg>

<svg xmlns="http://www.w3.org/2000/svg" width="32" height="32" viewBox="0 0 24 24">
    <path d="M23.688 23.352L.848.516a.372.372 0 0 0-.41-.082.372.372 0 0 0-.235.347v22.84c0 .211.168.379.379.379h22.836a.38.38 0 0 0 .27-.648zm-4.54-.11v-1.238a.38.38 0 0 0-.758 0v1.238h-2.273v-1.238a.38.38 0 0 0-.758 0v1.238h-2.273v-1.238a.377.377 0 0 0-.379-.379.377.377 0 0 0-.379.379v1.238h-2.273v-1.238a.377.377 0 0 0-.38-.379.377.377 0 0 0-.378.379v1.238H7.023v-1.238a.38.38 0 0 0-.757 0v1.238H3.992v-1.238a.38.38 0 0 0-.758 0v1.238H.961V1.7l21.543 21.543zm0 0"/>
    <path d="M16.41 20.32L3.88 7.832a.378.378 0 0 0-.645.27V20.59a.38.38 0 0 0 .38.379h12.53a.38.38 0 0 0 .266-.648zm-12.418-.11V9.017L15.227 20.21zm0 0M8.527 10.215L2.871 4.559a.382.382 0 0 0-.539 0 .384.384 0 0 0 0 .535l5.66 5.656a.373.373 0 0 0 .535 0 .377.377 0 0 0 0-.535zm0 0M10.55 12.438L9.54 11.43a.377.377 0 0 0-.536 0 .377.377 0 0 0 0 .535l1.012 1.012a.37.37 0 0 0 .265.109.378.378 0 0 0 .27-.649zm0 0M23.688 12.918l-2.86-2.86-8.746-8.742v-.004c-.004 0-.004-.003-.004-.003-.008-.008-.015-.016-.023-.02-.004-.004-.008-.008-.012-.008-.004-.008-.012-.011-.02-.015-.003-.004-.007-.004-.011-.008l-.02-.012c-.004-.004-.012-.004-.015-.008-.008-.004-.012-.004-.016-.008-.008-.003-.016-.003-.024-.007-.003 0-.007-.004-.011-.004-.012-.004-.02-.004-.031-.008h-.008v-.004L6.89.211a.14.14 0 0 0-.043-.008h-.063-.004-.004c-.007 0-.015.004-.023.004h-.008a.553.553 0 0 0-.086.027h-.008c-.007.004-.011.008-.02.012-.003.004-.007.004-.01.008 0 0-.005.004-.009.004-.004.004-.008.004-.011.008-.004.004-.012.007-.016.011-.004.004-.008.004-.008.004L6.57.29a.008.008 0 0 0-.008.008c-.007.004-.011.012-.019.016 0 .003-.004.003-.008.007-.004.008-.012.012-.015.02-.004 0-.004.004-.004.004-.004.004-.004.008-.008.008-.004.007-.008.011-.012.02-.004.003-.004.007-.008.01 0 0-.004.005-.004.009-.004.004-.004.007-.007.011v.004a.03.03 0 0 0-.008.016c0 .004-.004.004-.004.008 0 0 0 .004-.004.004l-.012.035v.004l-.011.039v.011c0 .004-.004.012-.004.02V.617c.003.016.003.028.007.04l1 4.995v.004c0 .008.004.016.004.024.004.008.004.015.008.023.004.004.004.012.008.02 0 .004.004.007.004.011a.085.085 0 0 0 .012.02l.003.012a.085.085 0 0 0 .012.02c.004.003.004.007.008.01a.069.069 0 0 0 .016.02c0 .004.004.008.007.008a.085.085 0 0 0 .016.02c.004.004.004.004.004.008l8.75 8.746 2.855 2.859c.075.074.172.11.27.11a.378.378 0 0 0 .27-.11l4-4.004a.379.379 0 0 0 0-.535zm-11.875-10.8l8.21 8.21-.75.75-8.21-8.21zm6.925 9.495l-.894.895-8.211-8.211.449-.445v-.004l.445-.446zM7.473 1.957l-.176-.895.246.051.644.13zm.18.89l1.429-1.425 1.965.39-1.5 1.5h-.004l-.711.715-.785.785zm.695 2.735l.75-.75 8.21 8.211-.75.75zm11.07 11.07l-2.324-2.324 1.02-1.015 2.448-2.45 2.32 2.325zm0 0"/>
    <path d="M21.664 13.047l-1.008-1.012a.377.377 0 0 0-.535 0 .377.377 0 0 0 0 .535l1.008 1.012c.074.074.172.11.27.11a.377.377 0 0 0 .266-.645zm0 0M23.688 4.695L19.398.406a1.389 1.389 0 0 0-1.964 0l-1.286 1.285a1.389 1.389 0 0 0 0 1.965l4.29 4.29a.381.381 0 0 0 .535 0l2.715-2.716a.377.377 0 0 0 0-.535zm-7.004-1.574a.63.63 0 0 1 0-.89L17.969.94a.634.634 0 0 1 .894 0l1.16 1.16-2.18 2.18zm4.02 4.02l-2.321-2.32 2.18-2.18 2.32 2.32zm0 0"/>
    <path d="M21.973 4.695l-1.145-1.144a.377.377 0 0 0-.535 0 .377.377 0 0 0 0 .535l1.145 1.144a.37.37 0 0 0 .265.11.378.378 0 0 0 .27-.645zm0 0"/>
</svg>
